components/2.0/icon/icons/icon-flickr-22px.svg

<?xml version="1.0" encoding="UTF-8" standalone="no"?>
<svg width="22px" height="22px" viewBox="0 0 22 22" version="1.1" xmlns="http://www.w3.org/2000/svg" xmlns:xlink="http://www.w3.org/1999/xlink" xmlns:sketch="http://www.bohemiancoding.com/sketch/ns">
    <!-- Generator: Sketch 3.4.4 (17249) - http://www.bohemiancoding.com/sketch -->
    <title>icon-flickr-22px</title>
    <desc>Created with Sketch.</desc>
    <defs></defs>
    <g id="22px" stroke="none" stroke-width="1" fill="none" fill-rule="evenodd" sketch:type="MSPage">
        <g id="icon-flickr-22px" sketch:type="MSArtboardGroup">
            <path d="M15,14 C13.343,14 12,12.657 12,11 C12,9.343 13.343,8 15,8 C16.657,8 18,9.343 18,11 C18,12.657 16.657,14 15,14 M18,2 L4,2 C2.896,2 2,2.896 2,4 L2,18 C2,19.104 2.896,20 4,20 L18,20 C19.104,20 20,19.104 20,18 L20,4 C20,2.896 19.104,2 18,2" id="primary" fill="#3D4752" sketch:type="MSShapeGroup"></path>
            <path d="M10,11 C10,12.657 8.657,14 7,14 C5.343,14 4,12.657 4,11 C4,9.343 5.343,8 7,8 C8.657,8 10,9.343 10,11" id="overlay" fill-opacity="0.3" fill="#FFFFFF" sketch:type="MSShapeGroup"></path>
        </g>
    </g>
</svg>

<svg width="22" height="22" xmlns="http://www.w3.org/2000/svg"><g fill="none" fill-rule="evenodd"><path d="M15 14c-1.7 0-3-1.3-3-3s1.3-3 3-3 3 1.3 3 3-1.3 3-3 3m3-12H4C3 2 2 3 2 4v14c0 1 1 2 2 2h14c1 0 2-1 2-2V4c0-1-1-2-2-2" fill="#3D4752"/><path d="M10 11c0 1.7-1.3 3-3 3s-3-1.3-3-3 1.3-3 3-3 3 1.3 3 3" fill-opacity=".3" fill="#FFF"/></g></svg>
